X: 34280
T: Renovation, The
R: reel
M: 4/4
K: Amajor
|:ED|C2EC ACEF|AB (3cBA BAFE|C2EC ACEA|dcBA GEDB,|
C2EC ACEF|ABcA BcdB|ce (3ede dcBA|GABG A2:|
|:AB|cAAf ecBA|dffe fbae|ceef ecBA|dcBA GABd|
ceef ecBA|dffe fbaf|ecBA dcBA|GABG A2:|

